brandFactory_export/2.Regular/Documento_Archivo PPT_2Regular.svg

<?xml version="1.0" encoding="UTF-8"?>
<svg width="24px" height="24px" viewBox="0 0 24 24" version="1.1" xmlns="http://www.w3.org/2000/svg" xmlns:xlink="http://www.w3.org/1999/xlink">
    <title>2.Regular/Documento_Archivo PPT_2Regular</title>
    <g id="Symbols" stroke="none" stroke-width="1" fill="none" fill-rule="evenodd">
        <g id="2.Regular/Documento_Archivo-PPT_2Regular" fill="#5CB615" fill-rule="nonzero">
            <path d="M16.2420168,0.0302521008 C16.5210084,0.0302521008 16.7831933,0.134453782 16.9781513,0.329411765 L23.3344538,6.48067227 C23.4722689,6.61176471 23.5495798,6.77310924 23.6,6.94453782 C23.6369748,7.03193277 23.6571429,7.12941176 23.6571429,7.2302521 L23.6571429,21.9966387 C23.6571429,22.897479 22.8840336,23.6571429 21.9663866,23.6571429 L7.34789916,23.6571429 C6.44705882,23.6571429 5.65714286,22.8806723 5.65714286,21.9966387 L5.69747899,18.6689076 L2.93445378,18.6689076 C1.33445378,18.6689076 0.0302521011,17.3613445 0.0302521011,15.7579832 L0.0302521011,10.8470588 C0.0302521011,9.24369748 1.33445378,7.93613445 2.93445378,7.93613445 L5.65378151,7.93613445 L5.65378151,1.6907563 C5.65378151,0.820168067 6.45714286,0.0302521008 7.34453782,0.0302521008 L16.2420168,0.0302521008 Z M15.189916,1.49243697 L7.34789916,1.49243697 C7.2605042,1.49243697 7.12268908,1.62352941 7.11596639,1.69411765 L7.11596639,7.93613445 L14.7529412,7.93613445 C16.3563025,7.93613445 17.6571429,9.24369748 17.6571429,10.8470588 L17.6571429,15.7579832 C17.6571429,17.3613445 16.3529412,18.6689076 14.7529412,18.6689076 L7.15630252,18.6689076 L7.11596639,22.0033613 C7.11596639,22.0638655 7.23697479,22.194958 7.34789916,22.194958 L21.9663866,22.194958 L21.9663866,22.1983193 C22.0840336,22.1983193 22.1983193,22.0840336 22.1983193,21.9966387 L22.1983193,8.27563025 L19.4218487,8.27563025 C18.205042,8.27563025 17.1529412,7.8789916 16.3831933,7.13277311 C15.6033613,6.37647059 15.189916,5.34789916 15.189916,4.15462185 L15.189916,1.49243697 Z M14.7529412,9.39831933 L2.93781513,9.39831933 C2.13781513,9.39831933 1.48907563,10.0504202 1.48907563,10.8504202 L1.48907563,15.7613445 C1.48907563,16.5613445 2.13781513,17.2134454 2.93781513,17.2134454 L14.7529412,17.2134454 C15.5529412,17.2134454 16.2016807,16.5613445 16.2016807,15.7613445 L16.2016807,10.8504202 C16.2016807,10.0504202 15.5529412,9.39831933 14.7529412,9.39831933 Z M4.81344538,11.2 C5.52268908,11.2 5.9697479,11.297479 6.26218487,11.5697479 C6.50756303,11.794958 6.62521008,12.1445378 6.62521008,12.6285714 C6.62521008,13.112605 6.51428571,13.4756303 6.28907563,13.7277311 C6.02352941,14.0268908 5.61344538,14.1647059 5.0184874,14.1647059 L4.29243698,14.1647059 L4.29243698,15.7243697 L3.2605042,15.7243697 L3.2605042,11.2 L4.81344538,11.2 Z M8.91092437,11.2 C9.62016807,11.2 10.0672269,11.297479 10.3596639,11.5697479 C10.605042,11.794958 10.7226891,12.1445378 10.7226891,12.6285714 C10.7226891,13.112605 10.6117647,13.4756303 10.3865546,13.7277311 C10.1210084,14.0268908 9.71092437,14.1647059 9.11596639,14.1647059 L8.38991597,14.1647059 L8.38991597,15.7243697 L7.35798319,15.7243697 L7.35798319,11.2 L8.91092437,11.2 Z M14.9378151,11.2 L14.8571429,11.9462185 L13.4890756,11.9462185 L13.4890756,15.7243697 L12.4571429,15.7243697 L12.4571429,11.9462185 L11.0554622,11.9462185 L11.0554622,11.2 L14.9378151,11.2 Z M4.77310924,11.9495798 L4.28907563,11.9495798 L4.28907563,13.3915966 L4.8,13.3915966 L4.8,13.3882353 C5.12941177,13.3882353 5.27058824,13.3411765 5.40168067,13.2168067 C5.51932773,13.0991597 5.57983193,12.907563 5.57983193,12.6420168 C5.57983193,12.3966387 5.52605042,12.2184874 5.40840336,12.107563 C5.28403361,11.9966387 5.09243698,11.9495798 4.77310924,11.9495798 Z M8.87058824,11.9495798 L8.38655462,11.9495798 L8.38655462,13.3915966 L8.89747899,13.3915966 L8.89747899,13.3882353 C9.22689076,13.3882353 9.36806723,13.3411765 9.49915966,13.2168067 C9.61680672,13.0991597 9.67731092,12.907563 9.67731092,12.6420168 C9.67731092,12.3966387 9.62352941,12.2184874 9.50588235,12.107563 C9.38151261,11.9966387 9.18991597,11.9495798 8.87058824,11.9495798 Z M16.6487395,2.03361345 L16.6487395,4.1512605 C16.6487395,4.93781513 16.907563,5.60672269 17.394958,6.08067227 C17.892437,6.56134454 18.5915966,6.81344538 19.4218487,6.81344538 L21.5832521,6.8132521 L16.6487395,2.03361345 Z" id="Documento_Archivo-PPT_2Regular"></path>
        </g>
    </g>
</svg>

<svg width="24" height="24" viewBox="0 0 24 24" xmlns="http://www.w3.org/2000/svg"><path d="M16.242.03c.279 0 .541.104.736.3l6.356 6.15c.138.132.216.293.266.465a.735.735 0 01.057.285v14.767c0 .9-.773 1.66-1.69 1.66H7.346c-.9 0-1.69-.776-1.69-1.66l.04-3.328H2.934A2.913 2.913 0 01.03 15.758v-4.91a2.913 2.913 0 012.904-2.912h2.72V1.691c0-.87.803-1.66 1.69-1.66h8.898zM15.19 1.492H7.348c-.087 0-.225.132-.232.202v6.242h7.637a2.91 2.91 0 012.904 2.911v4.911a2.913 2.913 0 01-2.904 2.91H7.156l-.04 3.335c0 .06.121.192.232.192h14.618v.003c.118 0 .232-.114.232-.201V8.276h-2.776c-1.217 0-2.27-.397-3.039-1.143-.78-.757-1.193-1.785-1.193-2.978V1.492zm-.437 7.906H2.938c-.8 0-1.449.652-1.449 1.452v4.911c0 .8.649 1.452 1.449 1.452h11.815c.8 0 1.449-.652 1.449-1.452v-4.91c0-.8-.65-1.453-1.45-1.453zM4.813 11.2c.71 0 1.157.097 1.45.37.245.225.362.575.362 1.059s-.11.847-.336 1.099c-.265.299-.676.437-1.27.437h-.727v1.56H3.261V11.2h1.552zm4.098 0c.71 0 1.156.097 1.449.37.245.225.363.575.363 1.059s-.111.847-.336 1.099c-.266.299-.676.437-1.271.437H8.39v1.56H7.358V11.2h1.553zm6.027 0l-.08.746h-1.369v3.778h-1.032v-3.778h-1.402V11.2h3.883zm-10.165.75H4.29v1.442H4.8v-.004c.33 0 .47-.047.602-.171.117-.118.178-.31.178-.575 0-.245-.054-.424-.172-.534-.124-.111-.316-.158-.635-.158zm4.098 0h-.484v1.442h.51v-.004c.33 0 .471-.047.602-.171.118-.118.178-.31.178-.575 0-.245-.053-.424-.171-.534-.124-.111-.316-.158-.635-.158zm7.778-9.916V4.15c0 .787.259 1.456.746 1.93.497.48 1.197.732 2.027.732h2.161l-4.934-4.78z" fill="#5CB615" fill-rule="nonzero"/></svg>
